X: 38287
T: St. Kilda Wedding
R: reel
M: 4/4
K: Gmajor
G3B GBdB|A2BG E2DE|G2BA GBdB|e3d edeg|
G3B GBdB|A2BG E2DE|G2BA GBdB|e3d edef||
g3a gddg|efgf e2dc|Bdef gfeg|dBgB A2BA|
Gggf gddg|efgf e2dc|Bdef gfeg|dBgB A2BA||

